actions/22/object-to-path.svg

<?xml version="1.0" encoding="UTF-8" standalone="no"?>
<!-- Created with Inkscape (http://www.inkscape.org/) -->

<svg
   xmlns:dc="http://purl.org/dc/elements/1.1/"
   xmlns:cc="http://creativecommons.org/ns#"
   xmlns:rdf="http://www.w3.org/1999/02/22-rdf-syntax-ns#"
   xmlns:svg="http://www.w3.org/2000/svg"
   xmlns="http://www.w3.org/2000/svg"
   xmlns:xlink="http://www.w3.org/1999/xlink"
   xmlns:inkscape="http://www.inkscape.org/namespaces/inkscape"
   version="1.0"
   width="22"
   height="22"
   id="svg8472">
  <defs
     id="defs8474">
    <linearGradient
       id="linearGradient8039">
      <stop
         id="stop8041"
         style="stop-color:#000000;stop-opacity:1"
         offset="0" />
      <stop
         id="stop8043"
         style="stop-color:#000000;stop-opacity:0"
         offset="1" />
    </linearGradient>
    <radialGradient
       cx="10.120466"
       cy="439.65573"
       r="3.0052037"
       fx="10.120466"
       fy="439.65573"
       id="radialGradient9609"
       xlink:href="#linearGradient8039"
       gradientUnits="userSpaceOnUse"
       gradientTransform="matrix(1,0,0,0.4779412,0,229.52615)" />
  </defs>
  <metadata
     id="metadata8477">
    <rdf:RDF>
      <cc:Work
         rdf:about="">
        <dc:format>image/svg+xml</dc:format>
        <dc:type
           rdf:resource="http://purl.org/dc/dcmitype/StillImage" />
        <dc:title>Object To Path</dc:title>
        <dc:date>2006-05-01</dc:date>
        <dc:creator>
          <cc:Agent>
            <dc:title>Lapo Calamandrei</dc:title>
          </cc:Agent>
        </dc:creator>
        <cc:license
           rdf:resource="http://creativecommons.org/licenses/GPL/2.0/" />
        <dc:subject>
          <rdf:Bag>
            <rdf:li>object</rdf:li>
            <rdf:li>convert</rdf:li>
            <rdf:li>path</rdf:li>
            <rdf:li>curve</rdf:li>
          </rdf:Bag>
        </dc:subject>
      </cc:Work>
      <cc:License
         rdf:about="http://creativecommons.org/licenses/GPL/2.0/">
        <cc:permits
           rdf:resource="http://web.resource.org/cc/Reproduction" />
        <cc:permits
           rdf:resource="http://web.resource.org/cc/Distribution" />
        <cc:requires
           rdf:resource="http://web.resource.org/cc/Notice" />
        <cc:permits
           rdf:resource="http://web.resource.org/cc/DerivativeWorks" />
        <cc:requires
           rdf:resource="http://web.resource.org/cc/ShareAlike" />
        <cc:requires
           rdf:resource="http://web.resource.org/cc/SourceCode" />
      </cc:License>
    </rdf:RDF>
  </metadata>
  <g
     id="layer1">
    <rect
       width="22"
       height="22"
       x="0.0072400002"
       y="-0.065420002"
       id="rect7903"
       style="fill:none;stroke:none" />
    <path
       d="m 13.12567,439.65573 a 3.0052037,1.4363106 0 1 1 -6.0104075,0 3.0052037,1.4363106 0 1 1 6.0104075,0 z"
       transform="matrix(3.6674254,0,0,2.0659107,-26.608818,-889.3222)"
       id="path6815"
       style="opacity:0.3;fill:url(#radialGradient9609);fill-opacity:1;stroke:none" />
    <path
       d="m 392.6875,430.53125 a 8.125,8.03125 0 1 1 -16.25,0 8.125,8.03125 0 1 1 16.25,0 z"
       transform="matrix(0.9846165,0,0,1,-368.13934,-420.06542)"
       id="path6811"
       style="fill:none;stroke:#204a87;stroke-width:3.02334499;stroke-linecap:square;stroke-linejoin:miter;stroke-miterlimit:4;stroke-opacity:1;stroke-dasharray:none;stroke-dashoffset:0" />
    <path
       d="m 392.6875,430.53125 a 8.125,8.03125 0 1 1 -16.25,0 8.125,8.03125 0 1 1 16.25,0 z"
       transform="matrix(0.9846165,0,0,1,-368.13934,-420.06542)"
       id="path6813"
       style="fill:none;stroke:#91b6dd;stroke-width:1.20933795;stroke-linecap:square;stroke-linejoin:miter;stroke-miterlimit:4;stroke-opacity:1;stroke-dasharray:none;stroke-dashoffset:0" />
    <g
       transform="translate(-380.99276,-419.06542)"
       id="g6773">
      <path
         d="m 389.5,435.50001 4,0 0,3.99994 -4,0 0,-3.99994 z"
         inkscape:connector-curvature="0"
         id="path6769"
         style="fill:#babdb6;fill-opacity:1;stroke:#888a85;stroke-width:1.00000024;stroke-linecap:round;stroke-linejoin:round;stroke-miterlimit:4;stroke-opacity:1" />
      <path
         d="m 390.5,436.50002 2,0 0,2.00008 -2,0 0,-2.00008 z"
         inkscape:connector-curvature="0"
         id="path6771"
         style="fill:none;stroke:#ffffff;stroke-width:1.00000048;stroke-linecap:round;stroke-linejoin:miter;stroke-miterlimit:4;stroke-opacity:1" />
    </g>
    <g
       transform="translate(-380.99276,-435.06542)"
       id="g6777">
      <path
         d="m 389.5,435.50001 4,0 0,3.99994 -4,0 0,-3.99994 z"
         inkscape:connector-curvature="0"
         id="path6779"
         style="fill:#babdb6;fill-opacity:1;stroke:#888a85;stroke-width:1.00000024;stroke-linecap:round;stroke-linejoin:round;stroke-miterlimit:4;stroke-opacity:1" />
      <path
         d="m 390.5,436.50002 2,0 0,2.00008 -2,0 0,-2.00008 z"
         inkscape:connector-curvature="0"
         id="path6781"
         style="fill:none;stroke:#ffffff;stroke-width:1.00000048;stroke-linecap:round;stroke-linejoin:miter;stroke-miterlimit:4;stroke-opacity:1" />
    </g>
    <g
       transform="matrix(0,1,-1,0,456.00722,-381.06544)"
       id="g6796">
      <g
         id="g6805">
        <g
           transform="translate(0,16)"
           id="g6789">
          <path
             d="m 389.5,435.50001 4,0 0,3.99994 -4,0 0,-3.99994 z"
             inkscape:connector-curvature="0"
             id="path6792"
             style="fill:#babdb6;fill-opacity:1;stroke:#888a85;stroke-width:1.00000024;stroke-linecap:round;stroke-linejoin:round;stroke-miterlimit:4;stroke-opacity:1" />
          <path
             d="m 390.5,436.50002 2,0 0,2.00008 -2,0 0,-2.00008 z"
             inkscape:connector-curvature="0"
             id="path6794"
             style="fill:none;stroke:#ffffff;stroke-width:1.00000048;stroke-linecap:round;stroke-linejoin:miter;stroke-miterlimit:4;stroke-opacity:1" />
        </g>
        <path
           d="m 389.5,435.50001 4,0 0,3.99994 -4,0 0,-3.99994 z"
           inkscape:connector-curvature="0"
           id="path6798"
           style="fill:#babdb6;fill-opacity:1;stroke:#888a85;stroke-width:1.00000024;stroke-linecap:round;stroke-linejoin:round;stroke-miterlimit:4;stroke-opacity:1" />
      </g>
      <path
         d="m 390.5,436.50002 2,0 0,2.00008 -2,0 0,-2.00008 z"
         inkscape:connector-curvature="0"
         id="path6800"
         style="fill:none;stroke:#ffffff;stroke-width:1.00000048;stroke-linecap:round;stroke-linejoin:miter;stroke-miterlimit:4;stroke-opacity:1" />
    </g>
  </g>
</svg>

<?xml version="1.0" encoding="UTF-8" standalone="no"?>
<!-- Created with Inkscape (http://www.inkscape.org/) -->
<svg
   xmlns:dc="http://purl.org/dc/elements/1.1/"
   xmlns:cc="http://web.resource.org/cc/"
   xmlns:rdf="http://www.w3.org/1999/02/22-rdf-syntax-ns#"
   xmlns:svg="http://www.w3.org/2000/svg"
   xmlns="http://www.w3.org/2000/svg"
   xmlns:xlink="http://www.w3.org/1999/xlink"
   xmlns:sodipodi="http://sodipodi.sourceforge.net/DTD/sodipodi-0.dtd"
   xmlns:inkscape="http://www.inkscape.org/namespaces/inkscape"
   width="22"
   height="22"
   id="svg8472"
   sodipodi:version="0.32"
   inkscape:version="0.45"
   sodipodi:docbase="/home/lapo/Desktop/arts-libre/22x22"
   sodipodi:docname="object-to-path.svg"
   inkscape:output_extension="org.inkscape.output.svg.inkscape"
   version="1.0">
  <defs
     id="defs8474">
    <linearGradient
       inkscape:collect="always"
       id="linearGradient8039">
      <stop
         style="stop-color:#000000;stop-opacity:1;"
         offset="0"
         id="stop8041" />
      <stop
         style="stop-color:#000000;stop-opacity:0;"
         offset="1"
         id="stop8043" />
    </linearGradient>
    <radialGradient
       inkscape:collect="always"
       xlink:href="#linearGradient8039"
       id="radialGradient9609"
       gradientUnits="userSpaceOnUse"
       gradientTransform="matrix(1,0,0,0.4779412,0,229.52615)"
       cx="10.120466"
       cy="439.65573"
       fx="10.120466"
       fy="439.65573"
       r="3.0052037" />
  </defs>
  <sodipodi:namedview
     id="base"
     pagecolor="#ffffff"
     bordercolor="#666666"
     borderopacity="1.0"
     inkscape:pageopacity="0.0"
     inkscape:pageshadow="2"
     inkscape:zoom="8"
     inkscape:cx="16.168997"
     inkscape:cy="-0.54843821"
     inkscape:current-layer="layer1"
     showgrid="false"
     inkscape:grid-bbox="true"
     inkscape:document-units="px"
     borderlayer="false"
     inkscape:showpageshadow="false"
     showborder="false"
     inkscape:window-width="872"
     inkscape:window-height="763"
     inkscape:window-x="111"
     inkscape:window-y="220"
     width="22px"
     height="22px" />
  <metadata
     id="metadata8477">
    <rdf:RDF>
      <cc:Work
         rdf:about="">
        <dc:format>image/svg+xml</dc:format>
        <dc:type
           rdf:resource="http://purl.org/dc/dcmitype/StillImage" />
        <dc:title>Object To Path</dc:title>
        <dc:date>2006-05-01</dc:date>
        <dc:creator>
          <cc:Agent>
            <dc:title>Lapo Calamandrei</dc:title>
          </cc:Agent>
        </dc:creator>
        <cc:license
           rdf:resource="http://creativecommons.org/licenses/GPL/2.0/" />
        <dc:subject>
          <rdf:Bag>
            <rdf:li>object</rdf:li>
            <rdf:li>convert</rdf:li>
            <rdf:li>path</rdf:li>
            <rdf:li>curve</rdf:li>
          </rdf:Bag>
        </dc:subject>
      </cc:Work>
      <cc:License
         rdf:about="http://creativecommons.org/licenses/GPL/2.0/">
        <cc:permits
           rdf:resource="http://web.resource.org/cc/Reproduction" />
        <cc:permits
           rdf:resource="http://web.resource.org/cc/Distribution" />
        <cc:requires
           rdf:resource="http://web.resource.org/cc/Notice" />
        <cc:permits
           rdf:resource="http://web.resource.org/cc/DerivativeWorks" />
        <cc:requires
           rdf:resource="http://web.resource.org/cc/ShareAlike" />
        <cc:requires
           rdf:resource="http://web.resource.org/cc/SourceCode" />
      </cc:License>
    </rdf:RDF>
  </metadata>
  <g
     id="layer1"
     inkscape:label="Layer 1"
     inkscape:groupmode="layer">
    <rect
       style="fill:none;fill-opacity:1;stroke:none;stroke-width:1;stroke-linecap:round;stroke-linejoin:miter;stroke-miterlimit:4;stroke-dasharray:none;stroke-opacity:1"
       id="rect7903"
       width="22"
       height="22"
       x="0.0072400002"
       y="-0.065420002" />
    <path
       transform="matrix(3.6674254,0,0,2.0659107,-26.608818,-889.3222)"
       d="M 13.12567 439.65573 A 3.0052037 1.4363106 0 1 1  7.1152625,439.65573 A 3.0052037 1.4363106 0 1 1  13.12567 439.65573 z"
       sodipodi:ry="1.4363106"
       sodipodi:rx="3.0052037"
       sodipodi:cy="439.65573"
       sodipodi:cx="10.120466"
       id="path6815"
       style="opacity:0.3;fill:url(#radialGradient9609);fill-opacity:1;stroke:none;stroke-width:1;stroke-linecap:round;stroke-linejoin:miter;stroke-miterlimit:4;stroke-dasharray:none;stroke-opacity:1"
       sodipodi:type="arc" />
    <path
       sodipodi:type="arc"
       style="fill:none;fill-opacity:1;stroke:#204a87;stroke-width:3.02334499;stroke-linecap:square;stroke-linejoin:miter;stroke-miterlimit:4;stroke-dasharray:none;stroke-dashoffset:0;stroke-opacity:1"
       id="path6811"
       sodipodi:cx="384.5625"
       sodipodi:cy="430.53125"
       sodipodi:rx="8.125"
       sodipodi:ry="8.03125"
       d="M 392.6875 430.53125 A 8.125 8.03125 0 1 1  376.4375,430.53125 A 8.125 8.03125 0 1 1  392.6875 430.53125 z"
       transform="matrix(0.9846165,0,0,1,-368.13934,-420.06542)" />
    <path
       sodipodi:type="arc"
       style="fill:none;fill-opacity:1;stroke:#91b6dd;stroke-width:1.20933795;stroke-linecap:square;stroke-linejoin:miter;stroke-miterlimit:4;stroke-dasharray:none;stroke-dashoffset:0;stroke-opacity:1"
       id="path6813"
       sodipodi:cx="384.5625"
       sodipodi:cy="430.53125"
       sodipodi:rx="8.125"
       sodipodi:ry="8.03125"
       d="M 392.6875 430.53125 A 8.125 8.03125 0 1 1  376.4375,430.53125 A 8.125 8.03125 0 1 1  392.6875 430.53125 z"
       transform="matrix(0.9846165,0,0,1,-368.13934,-420.06542)" />
    <g
       id="g6773"
       transform="translate(-380.99276,-419.06542)">
      <path
         style="opacity:1;fill:#babdb6;fill-opacity:1;stroke:#888a85;stroke-width:1.00000024;stroke-linecap:round;stroke-linejoin:round;stroke-miterlimit:4;stroke-opacity:1"
         d="M 389.5,435.50001 L 393.5,435.50001 L 393.5,439.49995 L 389.5,439.49995 L 389.5,435.50001 z "
         id="path6769" />
      <path
         style="opacity:1;fill:none;fill-opacity:1;stroke:#ffffff;stroke-width:1.00000048;stroke-linecap:round;stroke-linejoin:miter;stroke-miterlimit:4;stroke-opacity:1"
         d="M 390.5,436.50002 L 392.5,436.50002 L 392.5,438.5001 L 390.5,438.5001 L 390.5,436.50002 z "
         id="path6771" />
    </g>
    <g
       id="g6777"
       transform="translate(-380.99276,-435.06542)">
      <path
         style="opacity:1;fill:#babdb6;fill-opacity:1;stroke:#888a85;stroke-width:1.00000024;stroke-linecap:round;stroke-linejoin:round;stroke-miterlimit:4;stroke-opacity:1"
         d="M 389.5,435.50001 L 393.5,435.50001 L 393.5,439.49995 L 389.5,439.49995 L 389.5,435.50001 z "
         id="path6779" />
      <path
         style="opacity:1;fill:none;fill-opacity:1;stroke:#ffffff;stroke-width:1.00000048;stroke-linecap:round;stroke-linejoin:miter;stroke-miterlimit:4;stroke-opacity:1"
         d="M 390.5,436.50002 L 392.5,436.50002 L 392.5,438.5001 L 390.5,438.5001 L 390.5,436.50002 z "
         id="path6781" />
    </g>
    <g
       id="g6796"
       transform="matrix(0,1,-1,0,456.00722,-381.06544)">
      <g
         id="g6805">
        <g
           transform="translate(0,16)"
           id="g6789">
          <path
             id="path6792"
             d="M 389.5,435.50001 L 393.5,435.50001 L 393.5,439.49995 L 389.5,439.49995 L 389.5,435.50001 z "
             style="opacity:1;fill:#babdb6;fill-opacity:1;stroke:#888a85;stroke-width:1.00000024;stroke-linecap:round;stroke-linejoin:round;stroke-miterlimit:4;stroke-opacity:1" />
          <path
             id="path6794"
             d="M 390.5,436.50002 L 392.5,436.50002 L 392.5,438.5001 L 390.5,438.5001 L 390.5,436.50002 z "
             style="opacity:1;fill:none;fill-opacity:1;stroke:#ffffff;stroke-width:1.00000048;stroke-linecap:round;stroke-linejoin:miter;stroke-miterlimit:4;stroke-opacity:1" />
        </g>
        <path
           id="path6798"
           d="M 389.5,435.50001 L 393.5,435.50001 L 393.5,439.49995 L 389.5,439.49995 L 389.5,435.50001 z "
           style="opacity:1;fill:#babdb6;fill-opacity:1;stroke:#888a85;stroke-width:1.00000024;stroke-linecap:round;stroke-linejoin:round;stroke-miterlimit:4;stroke-opacity:1" />
      </g>
      <path
         style="opacity:1;fill:none;fill-opacity:1;stroke:#ffffff;stroke-width:1.00000048;stroke-linecap:round;stroke-linejoin:miter;stroke-miterlimit:4;stroke-opacity:1"
         d="M 390.5,436.50002 L 392.5,436.50002 L 392.5,438.5001 L 390.5,438.5001 L 390.5,436.50002 z "
         id="path6800" />
    </g>
  </g>
</svg>
